client/public/assets/icons/utility/animal_and_nature.svg

<?xml version="1.0" encoding="utf-8"?>
<svg version="1.1" id="Layer_1" xmlns="http://www.w3.org/2000/svg" xmlns:xlink="http://www.w3.org/1999/xlink" x="0px" y="0px"
   width="52px" height="52px" viewBox="0 0 52 52" enable-background="new 0 0 52 52" xml:space="preserve">
  <path fill="#FFFFFF" d="M17.3890829,4.60305058 C20.0880643,3.58920045 22.95837,3.08227539 26,3.08227539 C29.04163,3.08227539 31.9119357,3.58920045 34.6109171,4.60305058 C35.4598238,3.05190158 37.1070695,2 39,2 C41.7614237,2 44,4.23857625 44,7 C44,7.82153519 43.8018664,8.5967938 43.4507773,9.28059773 C44.6893037,10.3202506 45.5390445,13.5600514 46,19 C46.3942871,22.0083008 48.9873047,31.0666504 49,33 C49.0522637,40.9591521 41.385597,46.6258188 26,50 C10.6666667,46.7063802 3,41.0397135 3,33 C3.04736328,30.9470215 5.49975586,22.1008301 6,19 C6.60252733,13.7112015 7.47002244,10.5050274 8.60248532,9.38147786 C8.21823697,8.67344093 8,7.86220645 8,7 C8,4.23857625 10.2385763,2 13,2 C14.8929305,2 16.5401762,3.05190158 17.3890829,4.60305058 Z M20.9679344,22.6949428 C19.2115289,23.2457145 18.0577532,24.92405 18.1725751,26.7612016 L18.563352,33.013632 C18.8087908,36.9406527 22.0653168,40 26,40 C29.9346832,40 33.1912092,36.9406527 33.436648,33.013632 L33.8190397,26.8953652 C33.93443,25.0491197 32.7688091,23.3645882 31.0003642,22.821873 C29.2149747,22.2739577 27.4300226,22 25.6455078,22 C24.0045692,22 22.4453781,22.2316476 20.9679344,22.6949428 Z M36,23 C37.6568542,23 39,21.209139 39,19 C39,16.790861 37.6568542,15 36,15 C34.3431458,15 33,16.790861 33,19 C33,21.209139 34.3431458,23 36,23 Z M16,23 C17.6568542,23 19,21.209139 19,19 C19,16.790861 17.6568542,15 16,15 C14.3431458,15 13,16.790861 13,19 C13,21.209139 14.3431458,23 16,23 Z M29.0736299,27.7089195 C27.3059198,29.7387833 24.4498682,29.7306529 22.7268765,27.6908335 C21.0039682,25.6510141 22.4503068,23.9901712 25.9410086,24.0000438 C29.4317105,24.0099164 30.8413399,25.6788897 29.0736299,27.7089195 Z"/>
</svg>

<?xml version="1.0"?><svg xmlns="http://www.w3.org/2000/svg" width="52" height="52" viewBox="0 0 52 52"><path fill="#fff" d="m17.4 4.6c2.7-1 5.6-1.5 8.6-1.5s5.9 0.5 8.6 1.5c0.9-1.5 2.5-2.6 4.4-2.6 2.8 0 5 2.2 5 5 0 0.8-0.2 1.6-0.5 2.3 1.2 1 2 4.3 2.5 9.7 0.4 3 3 12.1 3 14 0.1 8-7.6 13.6-23 17-15.3-3.3-23-9-23-17 0-2.1 2.5-10.9 3-14 0.6-5.3 1.5-8.5 2.6-9.6-0.4-0.7-0.6-1.5-0.6-2.4 0-2.8 2.2-5 5-5 1.9 0 3.5 1.1 4.4 2.6z m3.6 18.1c-1.8 0.5-2.9 2.2-2.8 4.1l0.4 6.2c0.2 3.9 3.5 7 7.4 7 3.9 0 7.2-3.1 7.4-7l0.4-6.1c0.1-1.9-1-3.5-2.8-4.1-1.8-0.5-3.6-0.8-5.4-0.8-1.6 0-3.2 0.2-4.6 0.7z m15 0.3c1.7 0 3-1.8 3-4s-1.3-4-3-4-3 1.8-3 4 1.3 4 3 4z m-20 0c1.7 0 3-1.8 3-4s-1.3-4-3-4-3 1.8-3 4 1.3 4 3 4z m13.1 4.7c-1.8 2-4.7 2-6.4 0-1.7-2-0.3-3.7 3.2-3.7 3.5 0 4.9 1.7 3.2 3.7z"></path></svg>
